dist/icons/svgs/diamond-turn-right-solid.svg

<svg xmlns="http://www.w3.org/2000/svg" width="24" height="24" fill="currentcolor" class="icon-diamond-turn-right-solid" viewBox="0 0 24 24">
  <path d="M10.8672 2.46875C11.4922 1.88281 12.4688 1.88281 13.0938 2.46875L21.5312 10.9062C22.1172 11.5312 22.1172 12.5078 21.5312 13.1328L13.0938 21.5703C12.4688 22.1562 11.4922 22.1562 10.8672 21.5703L2.42969 13.1328C1.84375 12.5078 1.84375 11.5312 2.42969 10.9062L10.8672 2.46875ZM14.3047 7.82031C14.1094 7.66406 13.8359 7.58594 13.6016 7.70312C13.4062 7.78125 13.25 8.01562 13.25 8.25V10.4375H10.75C9.34375 10.4375 8.25 11.5703 8.25 12.9375V14.8125C8.25 15.3594 8.64062 15.75 9.1875 15.75C9.69531 15.75 10.125 15.3594 10.125 14.8125V12.9375C10.125 12.625 10.3984 12.3125 10.75 12.3125H13.25V14.5C13.25 14.7734 13.3672 15.0078 13.6016 15.0859C13.8359 15.2031 14.1094 15.125 14.3047 14.9688L17.4297 11.8438C17.6641 11.6094 17.6641 11.1797 17.4297 10.9453L14.3047 7.82031Z"/>
</svg>

<svg xmlns="http://www.w3.org/2000/svg" width="24" height="24" fill="currentColor" class="icon-diamond-turn-right-solid" viewBox="0 0 24 24">
  <path d="M10.867 2.469a1.63 1.63 0 0 1 2.227 0l8.437 8.437a1.63 1.63 0 0 1 0 2.227l-8.437 8.437a1.63 1.63 0 0 1-2.227 0L2.43 13.133a1.63 1.63 0 0 1 0-2.227zm3.438 5.351c-.196-.156-.47-.234-.703-.117-.196.078-.352.313-.352.547v2.188h-2.5a2.49 2.49 0 0 0-2.5 2.5v1.874c0 .547.39.938.938.938.507 0 .937-.39.937-.937v-1.876c0-.312.273-.624.625-.624h2.5V14.5c0 .273.117.508.352.586.234.117.507.039.703-.117l3.125-3.125a.66.66 0 0 0 0-.899z"/>
</svg>
